X:137
T:A Reel
O:No 137 William Clarke of Feltwell
M:4/4
L:1/8
N:In m.s. key signature is C.
K:G
G2|GB dBBd|{ef}d2GB dBBg|G2GB dBBd|{e/f/}g2dB AA Az::{g/a/}b2gde2eg|dgBg dgBg|b/a/g/f/ gde2eg|dBgB AA Aa|{ga}b2gde2eg|dgBg dgBg|b/a/g/f/ gd efge|dBgB AAAB||


